AS/assets/images/icons/landing.svg

<svg width="150" height="150" viewBox="0 0 150 150" fill="none" xmlns="http://www.w3.org/2000/svg">
<path fill-rule="evenodd" clip-rule="evenodd" d="M140.757 11.7424H9.24287C4.14609 11.7424 0 15.8885 0 20.985V110.227C0 115.324 4.14609 119.47 9.24287 119.47H53.7231L51.924 133.863H44.4697C43.256 133.863 42.2725 134.847 42.2725 136.06C42.2725 137.274 43.256 138.257 44.4697 138.257H105.53C106.744 138.257 107.728 137.274 107.728 136.06C107.728 134.847 106.744 133.863 105.53 133.863H98.0763L96.2769 119.47H140.757C145.854 119.47 150 115.324 150 110.227V20.985C150 15.8885 145.854 11.7424 140.757 11.7424ZM56.3528 133.863L58.1522 119.47H66.2391L67.0324 122.643C67.9482 126.306 71.2248 128.863 75.0003 128.863C78.7758 128.863 82.0523 126.306 82.9682 122.643L83.7615 119.47H91.8483L93.6472 133.863H56.3528ZM70.7687 119.47H79.231L78.7043 121.577C78.2786 123.28 76.7555 124.469 74.9997 124.469C73.2439 124.469 71.7211 123.279 71.2951 121.577L70.7687 119.47ZM145.605 110.227C145.605 112.9 143.43 115.075 140.757 115.075H9.24287C6.56953 115.075 4.39453 112.9 4.39453 110.227V20.985C4.39453 18.3117 6.56953 16.137 9.24287 16.137H140.757C143.43 16.137 145.605 18.3117 145.605 20.985V110.227ZM124.318 21.1365H11.5908C10.3771 21.1365 9.39355 22.12 9.39355 23.3337V107.879C9.39355 109.092 10.3771 110.076 11.5908 110.076H16.288C17.5018 110.076 18.4853 109.092 18.4853 107.879C18.4855 106.665 17.5018 105.681 16.2883 105.681H13.7884V25.531H124.318C125.531 25.531 126.515 24.5472 126.515 23.3337C126.515 22.12 125.531 21.1365 124.318 21.1365ZM133.712 21.1365H138.409C139.622 21.1365 140.606 22.12 140.606 23.3337V107.879C140.606 109.092 139.622 110.076 138.409 110.076H25.6821C24.4684 110.076 23.4849 109.092 23.4849 107.879C23.4849 106.665 24.4684 105.681 25.6821 105.681H136.212V25.531H133.712C132.498 25.531 131.514 24.5472 131.514 23.3337C131.514 22.12 132.498 21.1365 133.712 21.1365Z" fill="#4AC6D2"/>
<g clip-path="url(#clip0)">
<path d="M87.0251 44.0166H84.0187C82.6037 44.0166 81.4191 45.0203 81.1384 46.3531C78.8305 47.5077 67.5042 52.8706 52.5899 54.8336C51.7523 54.9439 51.0332 55.399 50.5682 56.0416H47.9436C46.3205 56.0417 45 57.3622 45 58.9853V64.9979C45 66.621 46.3205 67.9415 47.9436 67.9415H50.5684C51.0333 68.584 51.7526 69.0393 52.59 69.1495C52.7399 69.1693 52.8887 69.19 53.038 69.2105L57.6538 85.8275C58.0064 87.0967 59.1727 87.9832 60.4901 87.9832H65.9779C65.9789 87.9832 65.9798 87.9835 65.9809 87.9835C65.9822 87.9835 65.9832 87.9832 65.9845 87.9832H66.9834C67.5022 87.9832 67.9229 87.5627 67.9229 87.0438C67.9229 86.5248 67.5023 86.1043 66.9834 86.1043H66.6955L62.5036 71.0143C72.36 73.416 79.3767 76.7487 81.1385 77.6301C81.4191 78.9629 82.6038 79.9666 84.0189 79.9666H87.0251C88.6482 79.9666 89.9687 78.6461 89.9687 77.0229V46.9602C89.9687 45.3371 88.6482 44.0166 87.0251 44.0166ZM50.0105 66.0625H47.9436C47.3565 66.0625 46.8789 65.5848 46.8789 64.9977V58.9852C46.8789 58.3981 47.3565 57.9204 47.9436 57.9204H50.0105V66.0625ZM64.7453 86.1043H60.4901C60.0136 86.1043 59.5918 85.7836 59.4643 85.3245L55.0717 69.5123C56.9214 69.8085 58.7074 70.1533 60.4191 70.5306L64.7453 86.1043ZM88.0897 77.0229C88.0897 77.61 87.6121 78.0877 87.025 78.0877H84.0187C83.4316 78.0877 82.954 77.61 82.954 77.0229V77.0218C82.954 77.0197 82.954 77.0175 82.954 77.0153V54.9774C82.954 54.4586 82.5334 54.0379 82.0145 54.0379C81.4956 54.0379 81.075 54.4585 81.075 54.9774V75.5105C77.3762 73.7541 66.5933 69.0975 52.835 67.2866C52.2957 67.2157 51.8892 66.7614 51.8892 66.23V57.7532C51.8892 57.2218 52.2959 56.7675 52.835 56.6965C66.5933 54.8857 77.3762 50.2291 81.075 48.4728V50.969C81.075 51.4878 81.4956 51.9085 82.0145 51.9085C82.5334 51.9085 82.954 51.4879 82.954 50.969V46.9668C82.954 46.9656 82.954 46.9645 82.954 46.9633V46.9602C82.954 46.3731 83.4316 45.8955 84.0187 45.8955H87.025C87.6121 45.8955 88.0897 46.3731 88.0897 46.9602V77.0229Z" fill="#9E15BF"/>
<path d="M104.061 61.052H94.0396C93.5208 61.052 93.1001 61.4726 93.1001 61.9915C93.1001 62.5103 93.5207 62.931 94.0396 62.931H104.061C104.579 62.931 105 62.5104 105 61.9915C105 61.4726 104.579 61.052 104.061 61.052Z" fill="#9E15BF"/>
<path d="M101.918 51.6006C101.713 51.1236 101.161 50.9028 100.684 51.1072L99.6819 51.5367C99.2051 51.7411 98.9841 52.2934 99.1886 52.7702C99.3412 53.1265 99.6881 53.3398 100.052 53.3398C100.176 53.3398 100.301 53.3153 100.422 53.2636L101.424 52.8341C101.901 52.6297 102.122 52.0775 101.918 51.6006Z" fill="#9E15BF"/>
<path d="M97.9094 53.3183C97.7051 52.8415 97.1528 52.6206 96.6759 52.825L93.6697 54.1135C93.1929 54.3178 92.9719 54.8701 93.1763 55.347C93.329 55.7031 93.6759 55.9165 94.0403 55.9165C94.1638 55.9165 94.2893 55.892 94.4099 55.8403L97.4161 54.5518C97.8929 54.3475 98.1139 53.7952 97.9094 53.3183Z" fill="#9E15BF"/>
<path d="M101.424 71.1488L100.419 70.7181C99.9423 70.5136 99.3899 70.7346 99.1856 71.2115C98.9812 71.6883 99.2021 72.2406 99.6789 72.445L100.684 72.8756C100.805 72.9273 100.93 72.9518 101.054 72.9518C101.418 72.9518 101.765 72.7384 101.917 72.3822C102.122 71.9054 101.901 71.3531 101.424 71.1488Z" fill="#9E15BF"/>
<path d="M97.4146 69.4303L94.4098 68.1426C93.933 67.9383 93.3806 68.1591 93.1763 68.6359C92.9719 69.1129 93.1928 69.6651 93.6697 69.8694L96.6745 71.1572C96.7951 71.2089 96.9206 71.2334 97.0441 71.2334C97.4087 71.2334 97.7553 71.02 97.908 70.6638C98.1125 70.187 97.8915 69.6347 97.4146 69.4303Z" fill="#9E15BF"/>
</g>
<defs>
<clipPath id="clip0">
<rect width="60" height="60" fill="white" transform="translate(45 36)"/>
</clipPath>
</defs>
</svg>

<?xml version="1.0" encoding="utf-8"?>
<!-- Generator: Adobe Illustrator 22.1.0, SVG Export Plug-In . SVG Version: 6.00 Build 0)  -->
<svg version="1.1" id="Слой_1" xmlns="http://www.w3.org/2000/svg" xmlns:xlink="http://www.w3.org/1999/xlink" x="0px" y="0px"
	 viewBox="0 0 150 150" style="enable-background:new 0 0 150 150;" xml:space="preserve">
<style type="text/css">
	.st0{fill:#131313;}
</style>
<path class="st0" d="M140.8,11.7H9.2C4.1,11.7,0,15.9,0,21v89.2c0,5.1,4.1,9.2,9.2,9.2h44.5l-1.8,14.4h-7.5c-1.2,0-2.2,1-2.2,2.2
	c0,1.2,1,2.2,2.2,2.2h61.1c1.2,0,2.2-1,2.2-2.2c0-1.2-1-2.2-2.2-2.2h-7.5l-1.8-14.4h44.5c5.1,0,9.2-4.1,9.2-9.2V21
	C150,15.9,145.9,11.7,140.8,11.7z M56.4,133.9l1.8-14.4h8.1l0.8,3.2c0.9,3.7,4.2,6.2,8,6.2c3.8,0,7.1-2.6,8-6.2l0.8-3.2h8.1
	l1.8,14.4H56.4z M70.8,119.5h8.5l-0.5,2.1c-0.4,1.7-1.9,2.9-3.7,2.9c-1.8,0-3.3-1.2-3.7-2.9L70.8,119.5z M145.6,110.2
	c0,2.7-2.2,4.8-4.8,4.8H9.2c-2.7,0-4.8-2.2-4.8-4.8V21c0-2.7,2.2-4.8,4.8-4.8h131.5c2.7,0,4.8,2.2,4.8,4.8V110.2z M124.3,21.1H11.6
	c-1.2,0-2.2,1-2.2,2.2v84.5c0,1.2,1,2.2,2.2,2.2h4.7c1.2,0,2.2-1,2.2-2.2c0-1.2-1-2.2-2.2-2.2h-2.5V25.5h110.5c1.2,0,2.2-1,2.2-2.2
	C126.5,22.1,125.5,21.1,124.3,21.1z M133.7,21.1h4.7c1.2,0,2.2,1,2.2,2.2v84.5c0,1.2-1,2.2-2.2,2.2H25.7c-1.2,0-2.2-1-2.2-2.2
	c0-1.2,1-2.2,2.2-2.2h110.5V25.5h-2.5c-1.2,0-2.2-1-2.2-2.2C131.5,22.1,132.5,21.1,133.7,21.1z"/>
<g>
	<path class="st0" d="M87,44h-3c-1.4,0-2.6,1-2.9,2.3c-2.3,1.2-13.6,6.5-28.5,8.5c-0.8,0.1-1.6,0.6-2,1.2h-2.6
		C46.3,56,45,57.4,45,59v6c0,1.6,1.3,2.9,2.9,2.9h2.6c0.5,0.6,1.2,1.1,2,1.2c0.1,0,0.3,0,0.4,0.1l4.6,16.6c0.4,1.3,1.5,2.2,2.8,2.2
		H66c0,0,0,0,0,0c0,0,0,0,0,0h1c0.5,0,0.9-0.4,0.9-0.9c0-0.5-0.4-0.9-0.9-0.9h-0.3L62.5,71c9.9,2.4,16.9,5.7,18.6,6.6
		C81.4,79,82.6,80,84,80h3c1.6,0,2.9-1.3,2.9-2.9V47C90,45.3,88.6,44,87,44z M50,66.1h-2.1c-0.6,0-1.1-0.5-1.1-1.1v-6
		c0-0.6,0.5-1.1,1.1-1.1H50V66.1z M64.7,86.1h-4.3c-0.5,0-0.9-0.3-1-0.8l-4.4-15.8c1.8,0.3,3.6,0.6,5.3,1L64.7,86.1z M88.1,77
		c0,0.6-0.5,1.1-1.1,1.1h-3c-0.6,0-1.1-0.5-1.1-1.1v0c0,0,0,0,0,0V55c0-0.5-0.4-0.9-0.9-0.9c-0.5,0-0.9,0.4-0.9,0.9v20.5
		c-3.7-1.8-14.5-6.4-28.2-8.2c-0.5-0.1-0.9-0.5-0.9-1.1v-8.5c0-0.5,0.4-1,0.9-1.1c13.8-1.8,24.5-6.5,28.2-8.2V51
		c0,0.5,0.4,0.9,0.9,0.9c0.5,0,0.9-0.4,0.9-0.9v-4c0,0,0,0,0,0v0c0-0.6,0.5-1.1,1.1-1.1h3c0.6,0,1.1,0.5,1.1,1.1V77z"/>
	<path class="st0" d="M104.1,61.1H94c-0.5,0-0.9,0.4-0.9,0.9c0,0.5,0.4,0.9,0.9,0.9h10c0.5,0,0.9-0.4,0.9-0.9
		C105,61.5,104.6,61.1,104.1,61.1z"/>
	<path class="st0" d="M100.1,53.3c0.1,0,0.2,0,0.4-0.1l1-0.4c0.5-0.2,0.7-0.8,0.5-1.2c-0.2-0.5-0.8-0.7-1.2-0.5l-1,0.4
		c-0.5,0.2-0.7,0.8-0.5,1.2C99.3,53.1,99.7,53.3,100.1,53.3z"/>
	<path class="st0" d="M94,55.9c0.1,0,0.2,0,0.4-0.1l3-1.3c0.5-0.2,0.7-0.8,0.5-1.2c-0.2-0.5-0.8-0.7-1.2-0.5l-3,1.3
		c-0.5,0.2-0.7,0.8-0.5,1.2C93.3,55.7,93.7,55.9,94,55.9z"/>
	<path class="st0" d="M101.4,71.1l-1-0.4c-0.5-0.2-1,0-1.2,0.5c-0.2,0.5,0,1,0.5,1.2l1,0.4c0.1,0.1,0.2,0.1,0.4,0.1
		c0.4,0,0.7-0.2,0.9-0.6C102.1,71.9,101.9,71.4,101.4,71.1z"/>
	<path class="st0" d="M97.4,69.4l-3-1.3c-0.5-0.2-1,0-1.2,0.5c-0.2,0.5,0,1,0.5,1.2l3,1.3c0.1,0.1,0.2,0.1,0.4,0.1
		c0.4,0,0.7-0.2,0.9-0.6C98.1,70.2,97.9,69.6,97.4,69.4z"/>
</g>
</svg>
